X: 1
T: Hamburska fr\aan Kumla
R: Hamburska
N: Learned from Bengt Jonsson, 1991
N: Learned from David Bastviken, 1996
Z: John Chambers <jc@trillian.mit.edu>
M: 3/4
L: 1/8
K: G
|: D \
| "G"G>A B2 G>B | "Am"BA A2- A>B \
| "D7"c2 c>B A>G | (3FEF "G"G>D B,>D \
| "G"G>A B2 G>B |
| "Am"BA A2- A>B \
| "D7"c2 c>B A>G | (3FEF "G"G3 :| \
|: B/c/ \
| "G"d2 d<c c>B | "Am"cB A2- A>f |
| "G"g2 g<f "A7"e>d | (3^cBc "D"d3 B/=c/ \
| "G"d2 d<c c>B | "Am"cB A2- A>B \
| "D7"c2 c>B A>G | (3FEF "G"G3 :|
